!!!COM: Haydn, Franz Joseph
!!!OPR: String Quartet in C Major
!!!ONM: Opus 33, No. 3
!!!OTL: Affettuoso 
!!!OMV: 2
!!!SCT: H III:39
!!!SCA: Thematisch-bibliographisches Werkevererzeichnis (A. van Hoboken)
!!!YOR: Richault Edition, volume 7
!!!EED: Frances Bennion
!!!ENC: Frances Bennion
!!!CDT: 1732/3/31/-1809/5/31/
!!!OCY: Österreich
!!!YEC: Copyright (c) 1994, 2000 Center for Computer Assisted Research in the Humanities
!!!YEM: Rights to all derivative editions reserved.
!!!YEM: Refer to licensing agreement for further details.
!!!YEN: United States of America
**kern	**kern	**kern	**kern
*k[]	*k[]	*k[]	*k[]
*C:	*C:	*C:	*C:
*clefF	*clefF	*clefC3	*clefF4
*M3/4	*M3/4	*M3/4	*M3/4
*tb8	*tb8	*tb8	*tb8
=0-	=0-	=0-	=0-
2r	2r	2r	2r
4c	4c	4G	4EE
=1	=1	=1	=1
2c	2c	2G	2EE
4d	4A	4A	4FF
=2	=2	=2	=2
4c	2.G	4G	4EE
4B	.	4F	4DD
4c	.	4E	4CC
=3	=3	=3	=3
4d	4B	2.G	4BB
4e	4c	.	4AA
4f	4d	.	4GG
=4	=4	=4	=4
4f	4d	2G	2C
4e	4c	.	.
4d	4A	4A	4FF
=5	=5	=5	=5
2d	2A	2D	2FF
4e	4B-	4B-	4GG
=6	=6	=6	=6
4d	2.A	4A	4FF
4c#	.	4G	4EE
4d	.	4F	4DD
=7	=7	=7	=7
4e	4A	4E	2CC#
4g	4e	4A	.
4f#	4d	4A	4DD
=8	=8	=8	=8
4d	2d	2.G	2BB
4f	.	.	.
4e	4c	.	4C
=9	=9	=9	=9
4d	4A	4F	4FF
4c	4G	4E	4GG
4B	4B	4D	4GG
=10	=10	=10	=10
4c	4c	4C	4CC
4r	4r	4r	4r
4g	4G	4E	4EE
=11	=11	=11	=11
2g	2G	2E	2EE
4f	4B	4G	4DD
=12	=12	=12	=12
4e	4c	2G	4CC
4d	4B	.	4GG
4a	4A	4F	4FF
=13	=13	=13	=13
2a	2A	2F	2FF
4g	4c#	4A	4EE
=14	=14	=14	=14
4f	4d	4A	4DD
4e	4c#	4A	4AA
4d	4d	4F	4BB-
=15	=15	=15	=15
4d	4B-	4F	4BB-
4d	4B-	4F	4BB-
4d	4B-	4F	4BB-
=16	=16	=16	=16
4e	4B-	4G	4GG
4f	4A	4F	4FF
4g	4G	4E	4EE
=17	=17	=17	=17
4f	2A	2D	2.AA
4a	.	.	.
4c#	4c#	4E	.
=18	=18	=18	=18
4d	4d	4D	4DD
4r	4r	4r	4r
4f	4d	4A	4D
=19	=19	=19	=19
2f	2d	2A	2D
4f#	4e-	4A	4C
=20	=20	=20	=20
4f#	4e-	4A	4C
4g	4d	4G	4BB
4d	4B	4G	4F
=21	=21	=21	=21
2d	2B	2G	2F
4e	4c#	[4G	4E
=22	=22	=22	=22
4e	4c#	4G]	4E
4f	4d	4F	4D
4d	4B	[4G	4G
=23	=23	=23	=23
4e	4c	4G]	4C
4f	4A	4A	4FF
4d	4A	4F	4FF
=24	=24	=24	=24
2B	2G	2D	2GG
4c	4c	4G	4EE
=25	=25	=25	=25
2c	2c	2G	2EE
4d	4A	4A	4FF
=26	=26	=26	=26
4c	2.G	4G	4EE
4B	.	4F	4DD
4c	.	4E	4CC
=27	=27	=27	=27
4d	4B	[2.G	4BB
4e	4c	.	4AA
4f	4d	.	4GG
=28	=28	=28	=28
4f	4d	2G]	2C
4e	4c	.	.
4d	4A	4A	4FF
=29	=29	=29	=29
2d	2A	2D	2FF
4e	4B-	4B-	4GG
=30	=30	=30	=30
4d	2.A	4A	4FF
4c#	.	4G	4EE
4d	.	4F	4DD
=31	=31	=31	=31
4e	4A	4E	2CC#
4g	4e	4A	.
4f#	4d	4A	4DD
=32	=32	=32	=32
4d	2d	2.G	2BB
4f	.	.	.
4e	4c	.	4C
=33	=33	=33	=33
4d	4A	4F	4FF
4c	4G	4E	4GG
4B	4B	4D	4GG
=34	=34	=34	=34
4c	4c	4C	4CC
4r	2r	2r	2r
4gg	.	.	.
=35	=35	=35	=35
4gg	4ee	2.r	2.r
4r	4cc	.	.
4aa	4ff	.	.
=36	=36	=36	=36
4gg	4ee	2.r	2.r
4r	4cc	.	.
4ff	4g	.	.
=37	=37	=37	=37
8ee	4cc	2.r	2.r
8gg	.	.	.
8ee	4c	.	.
8gg	.	.	.
8ff	4g	.	.
8dd	.	.	.
=38	=38	=38	=38
4cc	8c	2.r	2.r
.	8e	.	.
4r	8g	.	.
.	8cc	.	.
4dd	8b	.	.
.	8g	.	.
=39	=39	=39	=39
8ee	4cc	2.r	2.r
8gg	.	.	.
8ee	4cc	.	.
8gg	.	.	.
8ff#	4a	.	.
8aa	.	.	.
=40	=40	=40	=40
4gg	8b	2.r	2.r
.	8dd	.	.
4r	8b	.	.
.	8g	.	.
4aa	8f#	.	.
.	8d	.	.
=41	=41	=41	=41
8bb	4g	2.r	2.r
8ccc	.	.	.
8ddd	4b	.	.
8bb	.	.	.
8ccc	4dd	.	.
8aa	.	.	.
=42	=42	=42	=42
4gg	4g	2.r	2.r
4r	4G	.	.
4gg	8ee	.	.
.	8g	.	.
=43	=43	=43	=43
4ff	8dd	2.r	2.r
.	8g	.	.
4r	8dd	.	.
.	8g	.	.
4ee	8cc	.	.
.	8g	.	.
=44	=44	=44	=44
4dd	8b	2.r	2.r
.	8g	.	.
4r	8b	.	.
.	8g	.	.
4gg	8ee	.	.
.	8g	.	.
=45	=45	=45	=45
4ff	8dd	2.r	2.r
.	8g	.	.
4r	8dd	.	.
.	8g	.	.
4ee	8cc	.	.
.	8g	.	.
=46	=46	=46	=46
8dd	8b	2.r	2.r
8b	8g	.	.
8cc	8a	.	.
8dd	8b	.	.
8ee	8cc	.	.
8ff	8dd	.	.
=47	=47	=47	=47
4gg	8ee	2.r	2.r
.	8cc	.	.
4r	8ee	.	.
.	8cc	.	.
4aa	8ff	.	.
.	8cc	.	.
=48	=48	=48	=48
4gg	8ee	2.r	2.r
.	8cc	.	.
4r	8ee	.	.
.	8cc	.	.
4ff	8dd	.	.
.	8g	.	.
=49	=49	=49	=49
8ee	4cc	2.r	2.r
8gg	.	.	.
8ccc	4ee	.	.
8eee	.	.	.
8ddd	4gg	.	.
8bb	.	.	.
=50	=50	=50	=50
4ccc	4cc	2.r	2.r
2r	2r	.	.
==	==	==	==
*-	*-	*-	*-
!!!RWG1: This file contains only pitch and duration data.
!!!RWG2: Transposing instruments are not transposed.
!!!RWG3: Spines may have incompatible meters.
!!!RWG4: Durations of rests and tied notes may be interpreted.
!!!RWG: Key is interpreted using the Humdrum key tool.
!!!GTL: 6 Quators ("Jungfernquartette")
!!!OPT: The Bird
!!!AFT: stage1
!!!END: 1997/04/15
!!format changes:
!!content changes:
!!public access: complete
!!!KEY: 1249384729
!!!EMD: Converted from MuseData to Humdrum Dec 16, 2000, by Andreas Kornstaedt using muse2kern.
